static/tools/vscode/build/out/vs/workbench/contrib/welcomeGettingStarted/common/media/menuBar.svg

<svg width="270" height="211" viewBox="0 0 270 211" fill="none" xmlns="http://www.w3.org/2000/svg">
<rect width="203" height="163" rx="1.24775" fill="#1E1E1E"/>
<rect width="22" height="163" fill="#303031"/>
<rect x="6.23828" y="7.12" width="10" height="1" fill="#C4C4C4"/>
<rect x="6.23828" y="10.12" width="10" height="1" fill="#C4C4C4"/>
<rect x="6.23828" y="13.12" width="10" height="1" fill="#C4C4C4"/>
<rect x="7.23828" y="20.3588" width="8" height="8" rx="2.4955" fill="white" fill-opacity="0.16"/>
<rect x="7.23828" y="34.5974" width="8" height="8" rx="2.4955" fill="white" fill-opacity="0.16"/>
<rect x="7.23828" y="48.8362" width="8" height="8" rx="2.4955" fill="white" fill-opacity="0.16"/>
<rect x="7.23828" y="63.075" width="8" height="8" rx="2.4955" fill="white" fill-opacity="0.16"/>
<rect width="180.768" height="19.964" transform="translate(22.001 0.00012207)" fill="#252526"/>
<g clip-path="url(#clip0_822:9958)">
<rect width="72.1532" height="19" transform="translate(22.001 0.482056)" fill="#1E1E1E"/>
<rect x="30.4072" y="7.53027" width="55.3408" height="4.90362" rx="2.45181" fill="white" fill-opacity="0.12"/>
</g>
<rect width="93" height="85" transform="translate(20 5)" fill="#3C3C3C"/>
<rect x="24" y="10.5" width="63" height="6" rx="3" fill="white" fill-opacity="0.16"/>
<path d="M104.195 13.5809L101.542 10.9603L101.93 10.5721L104.745 13.4191V13.775L101.93 16.6221L101.542 16.2338L104.195 13.5809Z" fill="#808080"/>
<rect width="93" height="17" transform="translate(20 22)" fill="#094771"/>
<rect x="24" y="27.5" width="48" height="6" rx="3" fill="white" fill-opacity="0.16"/>
<path d="M104.195 30.5809L101.542 27.9603L101.93 27.5721L104.745 30.4191V30.775L101.93 33.6221L101.542 33.2338L104.195 30.5809Z" fill="#808080"/>
<rect x="24" y="44.5" width="53" height="6" rx="3" fill="white" fill-opacity="0.16"/>
<path d="M104.195 47.5809L101.542 44.9603L101.93 44.5721L104.745 47.4191V47.775L101.93 50.6221L101.542 50.2338L104.195 47.5809Z" fill="#808080"/>
<rect x="24" y="61.5" width="35" height="6" rx="3" fill="white" fill-opacity="0.16"/>
<path d="M104.195 64.5809L101.542 61.9603L101.93 61.5721L104.745 64.4191V64.775L101.93 67.6221L101.542 67.2338L104.195 64.5809Z" fill="#808080"/>
<rect x="24" y="78.5" width="63" height="6" rx="3" fill="white" fill-opacity="0.16"/>
<path d="M104.195 81.5809L101.542 78.9603L101.93 78.5721L104.745 81.4191V81.775L101.93 84.6221L101.542 84.2338L104.195 81.5809Z" fill="#808080"/>
<rect x="59" y="48" width="203" height="163" rx="1.24775" fill="#1E1E1E"/>
<rect width="203" height="23" transform="translate(59 48)" fill="#333333"/>
<g filter="url(#filter0_d_822:9958)">
<mask id="mask0_822:9958" style="mask-type:alpha" maskUnits="userSpaceOnUse" x="66" y="53" width="12" height="13">
<path fill-rule="evenodd" clip-rule="evenodd" d="M74.117 65.1098C74.2962 65.1796 74.5005 65.1751 74.6813 65.0881L77.0232 63.9612C77.2693 63.8428 77.4258 63.5937 77.4258 63.3205V55.6795C77.4258 55.4062 77.2693 55.1572 77.0232 55.0388L74.6813 53.9119C74.444 53.7977 74.1662 53.8256 73.9579 53.9771C73.9282 53.9987 73.8999 54.0228 73.8733 54.0495L69.3899 58.1397L67.4371 56.6573C67.2553 56.5193 67.001 56.5306 66.8322 56.6842L66.2058 57.254C65.9993 57.4418 65.9991 57.7667 66.2053 57.9549L67.8989 59.5L66.2053 61.0451C65.9991 61.2332 65.9993 61.5581 66.2058 61.746L66.8322 62.3157C67.001 62.4693 67.2553 62.4806 67.4371 62.3426L69.3899 60.8603L73.8733 64.9505C73.9442 65.0215 74.0274 65.0749 74.117 65.1098ZM74.5838 56.9177L71.1819 59.5L74.5838 62.0822V56.9177Z" fill="white"/>
</mask>
<g mask="url(#mask0_822:9958)">
<path d="M77.0233 55.0404L74.6796 53.912C74.4083 53.7813 74.0841 53.8364 73.8712 54.0493L66.1986 61.045C65.9922 61.2331 65.9924 61.558 66.1991 61.7459L66.8258 62.3156C66.9947 62.4692 67.2492 62.4805 67.4311 62.3425L76.6707 55.3332C76.9806 55.098 77.4259 55.3191 77.4259 55.7082V55.681C77.4259 55.4079 77.2694 55.1589 77.0233 55.0404Z" fill="#0065A9"/>
<g filter="url(#filter1_d_822:9958)">
<path d="M77.0233 63.9594L74.6796 65.0878C74.4083 65.2185 74.0841 65.1634 73.8712 64.9505L66.1986 57.9549C65.9922 57.7667 65.9924 57.4418 66.1991 57.2539L66.8258 56.6842C66.9947 56.5306 67.2492 56.5193 67.4311 56.6573L76.6707 63.6666C76.9806 63.9018 77.4259 63.6807 77.4259 63.2916V63.3188C77.4259 63.5919 77.2694 63.8409 77.0233 63.9594Z" fill="#007ACC"/>
</g>
<g filter="url(#filter2_d_822:9958)">
<path d="M74.6796 65.088C74.4082 65.2185 74.084 65.1633 73.8711 64.9504C74.1334 65.2127 74.582 65.0269 74.582 64.6559V54.3438C74.582 53.9728 74.1334 53.787 73.8711 54.0493C74.084 53.8364 74.4082 53.7812 74.6796 53.9117L77.023 55.0387C77.2692 55.1571 77.4258 55.4061 77.4258 55.6794V63.3204C77.4258 63.5936 77.2692 63.8427 77.023 63.9611L74.6796 65.088Z" fill="#1F9CF0"/>
</g>
<g style="mix-blend-mode:overlay" opacity="0.25">
<path fill-rule="evenodd" clip-rule="evenodd" d="M74.1102 65.1098C74.2893 65.1796 74.4936 65.1751 74.6744 65.0881L77.0164 63.9612C77.2625 63.8428 77.4189 63.5937 77.4189 63.3205V55.6795C77.4189 55.4062 77.2625 55.1572 77.0164 55.0388L74.6744 53.9119C74.4371 53.7977 74.1594 53.8256 73.9511 53.9771C73.9214 53.9987 73.893 54.0228 73.8664 54.0495L69.3831 58.1397L67.4302 56.6573C67.2484 56.5193 66.9942 56.5306 66.8253 56.6842L66.199 57.254C65.9925 57.4418 65.9922 57.7667 66.1985 57.9549L67.8921 59.5L66.1985 61.0451C65.9922 61.2332 65.9925 61.5581 66.199 61.746L66.8253 62.3157C66.9942 62.4693 67.2484 62.4806 67.4302 62.3426L69.3831 60.8603L73.8664 64.9505C73.9373 65.0215 74.0206 65.0749 74.1102 65.1098ZM74.5769 56.9177L71.1751 59.5L74.5769 62.0822V56.9177Z" fill="url(#paint0_linear_822:9958)"/>
</g>
</g>
</g>
<rect x="85.4307" y="55.895" width="24" height="8" rx="2.4955" fill="white" fill-opacity="0.16"/>
<rect x="115.669" y="55.895" width="32" height="8" rx="2.4955" fill="white" fill-opacity="0.16"/>
<rect x="153.908" y="55.895" width="24" height="8" rx="2.4955" fill="white" fill-opacity="0.16"/>
<rect x="184.146" y="55.895" width="33" height="8" rx="2.4955" fill="white" fill-opacity="0.16"/>
<rect width="22" height="140" transform="translate(59 71)" fill="#303031"/>
<rect x="65.2383" y="78.12" width="8" height="8" rx="2.4955" fill="white" fill-opacity="0.16"/>
<rect x="65.2383" y="92.3588" width="8" height="8" rx="2.4955" fill="white" fill-opacity="0.16"/>
<rect x="65.2383" y="106.597" width="8" height="8" rx="2.4955" fill="white" fill-opacity="0.16"/>
<rect x="65.2383" y="120.836" width="8" height="8" rx="2.4955" fill="white" fill-opacity="0.16"/>
<rect width="180.768" height="19.964" transform="translate(81.001 71.0001)" fill="#252526"/>
<g clip-path="url(#clip1_822:9958)">
<rect width="72.1532" height="19" transform="translate(81.001 71.4821)" fill="#1E1E1E"/>
<rect x="89.4072" y="78.5303" width="55.3408" height="4.90362" rx="2.45181" fill="white" fill-opacity="0.12"/>
</g>
<defs>
<filter id="filter0_d_822:9958" x="64.1792" y="52.5648" width="15.1182" height="15.1182" filterUnits="userSpaceOnUse" color-interpolation-filters="sRGB">
<feFlood flood-opacity="0" result="BackgroundImageFix"/>
<feColorMatrix in="SourceAlpha" type="matrix" values="0 0 0 0 0 0 0 0 0 0 0 0 0 0 0 0 0 0 127 0" result="hardAlpha"/>
<feOffset dy="0.623874"/>
<feGaussianBlur stdDeviation="0.935811"/>
<feColorMatrix type="matrix" values="0 0 0 0 0 0 0 0 0 0 0 0 0 0 0 0 0 0 0.25 0"/>
<feBlend mode="normal" in2="BackgroundImageFix" result="effect1_dropShadow_822:9958"/>
<feBlend mode="normal" in="SourceGraphic" in2="effect1_dropShadow_822:9958" result="shape"/>
</filter>
<filter id="filter1_d_822:9958" x="61.6768" y="52.1938" width="20.1161" height="17.3313" filterUnits="userSpaceOnUse" color-interpolation-filters="sRGB">
<feFlood flood-opacity="0" result="BackgroundImageFix"/>
<feColorMatrix in="SourceAlpha" type="matrix" values="0 0 0 0 0 0 0 0 0 0 0 0 0 0 0 0 0 0 127 0" result="hardAlpha"/>
<feOffset/>
<feGaussianBlur stdDeviation="2.18356"/>
<feColorMatrix type="matrix" values="0 0 0 0 0 0 0 0 0 0 0 0 0 0 0 0 0 0 0.25 0"/>
<feBlend mode="overlay" in2="BackgroundImageFix" result="effect1_dropShadow_822:9958"/>
<feBlend mode="normal" in="SourceGraphic" in2="effect1_dropShadow_822:9958" result="shape"/>
</filter>
<filter id="filter2_d_822:9958" x="69.504" y="49.4746" width="12.2889" height="20.0506" filterUnits="userSpaceOnUse" color-interpolation-filters="sRGB">
<feFlood flood-opacity="0" result="BackgroundImageFix"/>
<feColorMatrix in="SourceAlpha" type="matrix" values="0 0 0 0 0 0 0 0 0 0 0 0 0 0 0 0 0 0 127 0" result="hardAlpha"/>
<feOffset/>
<feGaussianBlur stdDeviation="2.18356"/>
<feColorMatrix type="matrix" values="0 0 0 0 0 0 0 0 0 0 0 0 0 0 0 0 0 0 0.25 0"/>
<feBlend mode="overlay" in2="BackgroundImageFix" result="effect1_dropShadow_822:9958"/>
<feBlend mode="normal" in="SourceGraphic" in2="effect1_dropShadow_822:9958" result="shape"/>
</filter>
<linearGradient id="paint0_linear_822:9958" x1="71.7314" y1="53.8418" x2="71.7314" y2="65.1582" gradientUnits="userSpaceOnUse">
<stop stop-color="white"/>
<stop offset="1" stop-color="white" stop-opacity="0"/>
</linearGradient>
<clipPath id="clip0_822:9958">
<rect width="72.1532" height="19.964" fill="white" transform="translate(22.001 0.00012207)"/>
</clipPath>
<clipPath id="clip1_822:9958">
<rect width="72.1532" height="19.964" fill="white" transform="translate(81.001 71.0001)"/>
</clipPath>
</defs>
</svg>

<svg width="270" height="211" fill="none" xmlns="http://www.w3.org/2000/svg"><rect width="203" height="163" rx="1.248" fill="#1E1E1E"/><path fill="#303031" d="M0 0h22v163H0z"/><path fill="#C4C4C4" d="M6.238 7.12h10v1h-10zM6.238 10.12h10v1h-10zM6.238 13.12h10v1h-10z"/><rect x="7.238" y="20.359" width="8" height="8" rx="2.495" fill="#fff" fill-opacity=".16"/><rect x="7.238" y="34.597" width="8" height="8" rx="2.495" fill="#fff" fill-opacity=".16"/><rect x="7.238" y="48.836" width="8" height="8" rx="2.495" fill="#fff" fill-opacity=".16"/><rect x="7.238" y="63.075" width="8" height="8" rx="2.495" fill="#fff" fill-opacity=".16"/><path fill="#252526" d="M22.001 0h180.768v19.964H22.001z"/><g clip-path="url(#a)"><path fill="#1E1E1E" d="M22.001.482h72.153v19H22.001z"/><rect x="30.407" y="7.53" width="55.341" height="4.904" rx="2.452" fill="#fff" fill-opacity=".12"/></g><path fill="#3C3C3C" d="M20 5h93v85H20z"/><rect x="24" y="10.5" width="63" height="6" rx="3" fill="#fff" fill-opacity=".16"/><path d="m104.195 13.58-2.653-2.62.388-.388 2.815 2.847v.356l-2.815 2.847-.388-.388 2.653-2.653Z" fill="gray"/><path fill="#094771" d="M20 22h93v17H20z"/><rect x="24" y="27.5" width="48" height="6" rx="3" fill="#fff" fill-opacity=".16"/><path d="m104.195 30.58-2.653-2.62.388-.388 2.815 2.847v.356l-2.815 2.847-.388-.388 2.653-2.653Z" fill="gray"/><rect x="24" y="44.5" width="53" height="6" rx="3" fill="#fff" fill-opacity=".16"/><path d="m104.195 47.58-2.653-2.62.388-.388 2.815 2.847v.356l-2.815 2.847-.388-.388 2.653-2.653Z" fill="gray"/><rect x="24" y="61.5" width="35" height="6" rx="3" fill="#fff" fill-opacity=".16"/><path d="m104.195 64.58-2.653-2.62.388-.388 2.815 2.847v.356l-2.815 2.847-.388-.388 2.653-2.653Z" fill="gray"/><rect x="24" y="78.5" width="63" height="6" rx="3" fill="#fff" fill-opacity=".16"/><path d="m104.195 81.58-2.653-2.62.388-.388 2.815 2.847v.356l-2.815 2.847-.388-.388 2.653-2.653Z" fill="gray"/><rect x="59" y="48" width="203" height="163" rx="1.248" fill="#1E1E1E"/><path fill="#333" d="M59 48h203v23H59z"/><g filter="url(#b)"><mask id="c" style="mask-type:alpha" maskUnits="userSpaceOnUse" x="66" y="53" width="12" height="13"><path fill-rule="evenodd" clip-rule="evenodd" d="M74.117 65.11c.18.07.383.065.564-.022l2.342-1.127a.711.711 0 0 0 .403-.64v-7.642a.71.71 0 0 0-.403-.64l-2.342-1.127a.708.708 0 0 0-.808.138l-4.483 4.09-1.953-1.483a.473.473 0 0 0-.605.027l-.626.57a.474.474 0 0 0 0 .7l1.693 1.546-1.694 1.545a.474.474 0 0 0 0 .701l.627.57a.473.473 0 0 0 .605.027l1.953-1.483 4.483 4.09c.071.072.154.125.244.16Zm.467-8.192L71.182 59.5l3.402 2.582v-5.164Z" fill="#fff"/></mask><g mask="url(#c)"><path d="m77.023 55.04-2.343-1.128a.708.708 0 0 0-.809.137L66.2 61.045a.474.474 0 0 0 0 .7l.627.57a.474.474 0 0 0 .605.028l9.24-7.01a.47.47 0 0 1 .755.375v-.027a.711.711 0 0 0-.403-.64Z" fill="#0065A9"/><g filter="url(#d)"><path d="m77.023 63.96-2.343 1.128a.708.708 0 0 1-.809-.137L66.2 57.955a.474.474 0 0 1 0-.701l.627-.57a.474.474 0 0 1 .605-.027l9.24 7.01a.47.47 0 0 0 .755-.375v.027a.711.711 0 0 1-.403.64Z" fill="#007ACC"/></g><g filter="url(#e)"><path d="M74.68 65.088a.709.709 0 0 1-.809-.138c.262.263.711.077.711-.294V54.344a.416.416 0 0 0-.71-.295.709.709 0 0 1 .808-.137l2.343 1.127a.71.71 0 0 1 .403.64v7.641a.711.711 0 0 1-.403.641l-2.343 1.127Z" fill="#1F9CF0"/></g><path fill-rule="evenodd" clip-rule="evenodd" d="M74.11 65.11c.18.07.384.065.564-.022l2.342-1.127a.71.71 0 0 0 .403-.64v-7.642a.71.71 0 0 0-.403-.64l-2.342-1.127a.708.708 0 0 0-.808.138l-4.483 4.09-1.953-1.483a.473.473 0 0 0-.605.027l-.626.57a.474.474 0 0 0 0 .7l1.693 1.546-1.694 1.545a.474.474 0 0 0 .001.701l.626.57a.473.473 0 0 0 .605.027l1.953-1.483 4.483 4.09c.071.072.155.125.244.16Zm.467-8.192L71.175 59.5l3.402 2.582v-5.164Z" fill="url(#f)" style="mix-blend-mode:overlay" opacity=".25"/></g></g><rect x="85.431" y="55.895" width="24" height="8" rx="2.495" fill="#fff" fill-opacity=".16"/><rect x="115.669" y="55.895" width="32" height="8" rx="2.495" fill="#fff" fill-opacity=".16"/><rect x="153.908" y="55.895" width="24" height="8" rx="2.495" fill="#fff" fill-opacity=".16"/><rect x="184.146" y="55.895" width="33" height="8" rx="2.495" fill="#fff" fill-opacity=".16"/><path fill="#303031" d="M59 71h22v140H59z"/><rect x="65.238" y="78.12" width="8" height="8" rx="2.495" fill="#fff" fill-opacity=".16"/><rect x="65.238" y="92.359" width="8" height="8" rx="2.495" fill="#fff" fill-opacity=".16"/><rect x="65.238" y="106.597" width="8" height="8" rx="2.495" fill="#fff" fill-opacity=".16"/><rect x="65.238" y="120.836" width="8" height="8" rx="2.495" fill="#fff" fill-opacity=".16"/><path fill="#252526" d="M81.001 71h180.768v19.964H81.001z"/><g clip-path="url(#g)"><path fill="#1E1E1E" d="M81.001 71.482h72.153v19H81.001z"/><rect x="89.407" y="78.53" width="55.341" height="4.904" rx="2.452" fill="#fff" fill-opacity=".12"/></g><defs><filter id="b" x="64.179" y="52.565" width="15.118" height="15.118" filterUnits="userSpaceOnUse" color-interpolation-filters="sRGB"><feFlood flood-opacity="0" result="BackgroundImageFix"/><feColorMatrix in="SourceAlpha" values="0 0 0 0 0 0 0 0 0 0 0 0 0 0 0 0 0 0 127 0" result="hardAlpha"/><feOffset dy=".624"/><feGaussianBlur stdDeviation=".936"/><feColorMatrix values="0 0 0 0 0 0 0 0 0 0 0 0 0 0 0 0 0 0 0.25 0"/><feBlend in2="BackgroundImageFix" result="effect1_dropShadow_822:9958"/><feBlend in="SourceGraphic" in2="effect1_dropShadow_822:9958" result="shape"/></filter><filter id="d" x="61.677" y="52.194" width="20.116" height="17.331" filterUnits="userSpaceOnUse" color-interpolation-filters="sRGB"><feFlood flood-opacity="0" result="BackgroundImageFix"/><feColorMatrix in="SourceAlpha" values="0 0 0 0 0 0 0 0 0 0 0 0 0 0 0 0 0 0 127 0" result="hardAlpha"/><feOffset/><feGaussianBlur stdDeviation="2.184"/><feColorMatrix values="0 0 0 0 0 0 0 0 0 0 0 0 0 0 0 0 0 0 0.25 0"/><feBlend mode="overlay" in2="BackgroundImageFix" result="effect1_dropShadow_822:9958"/><feBlend in="SourceGraphic" in2="effect1_dropShadow_822:9958" result="shape"/></filter><filter id="e" x="69.504" y="49.475" width="12.289" height="20.051" filterUnits="userSpaceOnUse" color-interpolation-filters="sRGB"><feFlood flood-opacity="0" result="BackgroundImageFix"/><feColorMatrix in="SourceAlpha" values="0 0 0 0 0 0 0 0 0 0 0 0 0 0 0 0 0 0 127 0" result="hardAlpha"/><feOffset/><feGaussianBlur stdDeviation="2.184"/><feColorMatrix values="0 0 0 0 0 0 0 0 0 0 0 0 0 0 0 0 0 0 0.25 0"/><feBlend mode="overlay" in2="BackgroundImageFix" result="effect1_dropShadow_822:9958"/><feBlend in="SourceGraphic" in2="effect1_dropShadow_822:9958" result="shape"/></filter><clipPath id="a"><path fill="#fff" transform="translate(22.001)" d="M0 0h72.153v19.964H0z"/></clipPath><clipPath id="g"><path fill="#fff" transform="translate(81.001 71)" d="M0 0h72.153v19.964H0z"/></clipPath><linearGradient id="f" x1="71.731" y1="53.842" x2="71.731" y2="65.158" gradientUnits="userSpaceOnUse"><stop stop-color="#fff"/><stop offset="1" stop-color="#fff" stop-opacity="0"/></linearGradient></defs></svg>
